icon-themes/sifr_svg/cmd/sc_starshapes.star24.svg

<svg viewBox="0 0 16 16" xmlns="http://www.w3.org/2000/svg"><g fill="#555753"><path d="m7.5019531 0-.1953125 2.7363281-.8964844-2.59374998-.9628906.25976563.5214844 2.69335935-1.5371094-2.27343748-.8632812.49804688 1.1992187 2.46875-2.0722656-1.7988281-.7050781.7050781 1.7988281 2.0722656-2.46875-1.1992187-.49804688.8632812 2.26953128 1.5351563-2.69140628-.5195313-.2578125.9648438 2.59179688.8964844-2.73632813.1933593v.9980469l2.73632813.1933594-2.59179688.8964844.2578125.9628902 2.69335938-.521484-2.27148438 1.537109.49804688.865235 2.4667969-1.201172-1.796875 2.072266.7050781.705078 2.0722656-1.796875-1.1992187 2.466797.8632812.5 1.5371094-2.273438-.5214844 2.693359.9628906.257813.8964844-2.591797.1953125 2.736328h.9960938l.1953125-2.736328.8964844 2.591797.9628902-.257813-.521484-2.693359 1.537109 2.273438.863282-.5-1.199219-2.466797 2.072266 1.796875.705078-.705078-1.796875-2.072266 2.466797 1.201172.498046-.865235-2.271484-1.537109 2.693359.521484.257813-.9628902-2.591797-.8964844 2.736328-.1933594v-.9980469l-2.736328-.1933593 2.591797-.8964844-.257813-.9648438-2.691406.5195313 2.269531-1.5351563-.498046-.8632812-2.46875 1.1992187 1.798828-2.0722656-.705078-.7050781-2.072266 1.7988281 1.199219-2.46875-.863282-.49804688-1.537109 2.27343748.521484-2.69335935-.9628902-.25976563-.8964844 2.59374998-.1953125-2.7363281zm.4980469 6a2 2 0 0 1 2 2 2 2 0 0 1 -2 2 2 2 0 0 1 -2-2 2 2 0 0 1 2-2z"/><circle cx="8" cy="8" opacity=".35" r="2"/></g></svg>

<svg xmlns="http://www.w3.org/2000/svg" viewBox="0 0 16 16">
  <path
     style="fill:#555753"
     d="M 7.5019531 0 L 7.3066406 2.7363281 L 6.4101562 0.14257812 L 5.4472656 0.40234375 L 5.96875 3.0957031 L 4.4316406 0.82226562 L 3.5683594 1.3203125 L 4.7675781 3.7890625 L 2.6953125 1.9902344 L 1.9902344 2.6953125 L 3.7890625 4.7675781 L 1.3203125 3.5683594 L 0.82226562 4.4316406 L 3.0917969 5.9667969 L 0.40039062 5.4472656 L 0.14257812 6.4121094 L 2.734375 7.3085938 L -0.001953125 7.5019531 L -0.001953125 8.5 L 2.734375 8.6933594 L 0.14257812 9.5898438 L 0.40039062 10.552734 L 3.09375 10.03125 L 0.82226562 11.568359 L 1.3203125 12.433594 L 3.7871094 11.232422 L 1.9902344 13.304688 L 2.6953125 14.009766 L 4.7675781 12.212891 L 3.5683594 14.679688 L 4.4316406 15.179688 L 5.96875 12.90625 L 5.4472656 15.599609 L 6.4101562 15.857422 L 7.3066406 13.265625 L 7.5019531 16.001953 L 8.4980469 16.001953 L 8.6933594 13.265625 L 9.5898438 15.857422 L 10.552734 15.599609 L 10.03125 12.90625 L 11.568359 15.179688 L 12.431641 14.679688 L 11.232422 12.212891 L 13.304688 14.009766 L 14.009766 13.304688 L 12.212891 11.232422 L 14.679688 12.433594 L 15.177734 11.568359 L 12.90625 10.03125 L 15.599609 10.552734 L 15.857422 9.5898438 L 13.265625 8.6933594 L 16.001953 8.5 L 16.001953 7.5019531 L 13.265625 7.3085938 L 15.857422 6.4121094 L 15.599609 5.4472656 L 12.908203 5.9667969 L 15.177734 4.4316406 L 14.679688 3.5683594 L 12.210938 4.7675781 L 14.009766 2.6953125 L 13.304688 1.9902344 L 11.232422 3.7890625 L 12.431641 1.3203125 L 11.568359 0.82226562 L 10.03125 3.0957031 L 10.552734 0.40234375 L 9.5898438 0.14257812 L 8.6933594 2.7363281 L 8.4980469 0 L 7.5019531 0 z M 8 6 A 2 2 0 0 1 10 8 A 2 2 0 0 1 8 10 A 2 2 0 0 1 6 8 A 2 2 0 0 1 8 6 z "
     />
  <circle
     style="opacity:0.35;fill:#555753"
     cx="8"
     cy="8"
     r="2" />
</svg>
